!!!COM: Webern, Anton (Friedrich Wilhelm von)
!!!OTL: Fünf Stücke (Five Pieces) for Orchestra, op. 10
!!!OMV: Movement 1
!!!example: 408
!!!work: Web-13
**kern	**dynam	**kern	**dynam	**kern	**dynam	**kern	**dynam	**kern	**kern	**dynam	**kern	**kern	**dynam	**kern	**dynam	**kern	**dynam	**kern	**dynam	**kern	**dynam
*part10	*part10	*part9	*part9	*part8	*part8	*part7	*part7	*part6	*part6	*part6	*part5	*part5	*part5	*part4	*part4	*part3	*part3	*part2	*part2	*part1	*part1
*staff12	*	*staff11	*	*staff10	*	*staff9	*	*staff8	*staff7	*	*staff6	*staff5	*	*staff4	*	*staff3	*	*staff2	*	*staff1	*
*I"Violoncello	*	*I"Viola	*	*I"Violin	*	*I"Glockenspiel	*	*I"Harp	*	*	*I"Celesta	*	*	*I"Trombone	*	*I"Trumpet in Bb	*	*I"Clarinet in Bb	*	*I"Flute	*
*I'Vc.	*	*I'Vla.	*	*I'Vln.	*	*I'Glock.	*	*I'Hp.	*	*	*I'Cel.	*	*	*I'Tbn.	*	*I'Tpt.	*	*I'Cl.	*	*I'Fl.	*
*clefF4	*	*clefC3	*	*clefG2	*	*clefG2	*	*clefF4	*clefG2	*	*clefF4	*clefG2	*	*clefF4	*	*clefG2	*	*clefG2	*	*clefG2	*
*	*	*	*	*	*	*ITrd0c0	*	*	*	*	*ITrd0c0	*ITrd0c0	*	*	*	*ITrd1c2	*	*ITrd1c2	*	*	*
*k[]	*	*k[]	*	*k[]	*	*k[]	*	*k[]	*k[]	*	*k[]	*k[]	*	*k[]	*	*k[b-e-]	*	*k[b-e-]	*	*k[]	*
*	*	*	*	*	*	*	*	*	*	*	*	*	*	*	*	*	*	*	*	*	*
*M2/4	*	*M2/4	*	*M2/4	*	*M2/4	*	*M2/4	*M2/4	*	*M2/4	*M2/4	*	*M2/4	*	*M2/4	*	*M2/4	*	*M2/4	*
!	!	!	!	!LO:TX:t=[quarter]=50	!	!	!	!	!	!	!	!	!	!	!	!	!	!	!	!LO:TX:t=[quarter]=50	!
8r	.	8r	.	8r	.	8r	.	8r	8b'	ppp	8r	8r	.	8r	.	8cc#X'	ppp	8r	.	8r	.
=1	=1	=1	=1	=1	=1	=1	=1	=1	=1	=1	=1	=1	=1	=1	=1	=1	=1	=1	=1	=1	=1
!	!	!	!	!	!	!LO:TX:a:i:t=dolcissimo	!	!	!	!	!	!	!	!	!	!	!	!	!	!LO:TX:a:t=Flatterz.	!
2r	.	8Cnv 8Fn	pp	2r	.	2r	.	4cn~	4r	.	2r	4An~	ppp	2r	.	2r	.	2r	.	4r	.
.	.	8r	.	.	.	.	.	.	.	.	.	.	.	.	.	.	.	.	.	.	.
.	.	4r	.	.	.	.	.	4r	12r	.	.	4r	.	.	.	.	.	.	.	12r	ppp
.	.	.	.	.	.	.	.	.	6bn	pp	.	.	.	.	.	.	.	.	.	6bn@32@	< [
=2	=2	=2	=2	=2	=2	=2	=2	=2	=2	=2	=2	=2	=2	=2	=2	=2	=2	=2	=2	=2	=2
2r	.	2r	.	2r	.	6ee-X	pp >	2r	2r	.	2r	2r	.	2r	.	2r	.	2r	.	2r	.
.	.	.	.	.	.	6gn	.	.	.	.	.	.	.	.	.	.	.	.	.	.	.
.	.	.	.	.	.	6dn	]	.	.	.	.	.	.	.	.	.	.	.	.	.	.
=3	=3	=3	=3	=3	=3	=3	=3	=3	=3	=3	=3	=3	=3	=3	=3	=3	=3	=3	=3	=3	=3
!	!	!	!	!	!	!	!	!	!	!	!	!	!	!	!	!	!	!LO:TX:a:i:t=dolcissimo	!	!	!
2r	.	2r	.	2r	.	2r	.	2r	2r	.	2G#X^	2r	pp	2r	.	2r	.	4r	.	2r	.
.	.	.	.	.	.	.	.	.	.	.	.	.	.	.	.	.	.	8r	.	.	.
.	.	.	.	.	.	.	.	.	.	.	.	.	.	.	.	.	.	([8gg	ppp	.	.
=4	=4	=4	=4	=4	=4	=4	=4	=4	=4	=4	=4	=4	=4	=4	=4	=4	=4	=4	=4	=4	=4
2r	.	4r	.	4r	.	2r	.	2r	4r	.	2G#X	2r	< [	2r	.	2r	.	8gg]	.	4r	.
.	.	.	.	.	.	.	.	.	.	.	.	.	.	.	.	.	.	[4.bbX	< [	.	.
.	.	8r	.	8r	.	.	.	.	8r	.	.	.	.	.	.	.	.	.	.	12r	ppp
.	.	.	.	.	.	.	.	.	.	.	.	.	.	.	.	.	.	.	.	[6cc#X@32@	< [
.	.	[8dnv	pp <	[8Bnv	pp <	.	.	.	8Bn 8dn	ppp	.	.	.	.	.	.	.	.	.	.	.
=5	=5	=5	=5	=5	=5	=5	=5	=5	=5	=5	=5	=5	=5	=5	=5	=5	=5	=5	=5	=5	=5
2r	.	12d]	.	12B]	.	2r	.	2r	6r	.	2G#X	2r	> ]	2r	.	2r	.	4bb]	.	12cc#]	.
.	.	12r	[	12r	[	.	.	.	.	.	.	.	.	.	.	.	.	.	.	12r	.
.	.	6.e-Xv	>	6.cnv	>	.	.	.	6cn 6e-X	pp	.	.	.	.	.	.	.	.	.	6.b-X	>
.	.	.	.	.	.	.	.	.	.	.	.	.	.	.	.	.	.	8ccc#XL	>	.	.
.	.	.	.	.	.	.	.	.	6r	.	.	.	.	.	.	.	.	.	.	.	.
.	.	.	.	.	.	.	.	.	.	.	.	.	.	.	.	.	.	8ffJ)	]	.	.
!	!	!	!	!LO:TX:a:i:t=zügernd tempo	!	!	!	!	!	!	!	!	!	!	!	!	!	!	!	!LO:TX:a:i:t=zügernd tempo	!
.	.	12r	]	12r	]	.	.	.	.	.	.	.	.	.	.	.	.	.	.	12r	.
*clefC4	*	*	*	*	*	*	*	*	*	*	*	*	*	*	*	*	*	*	*	*	*
=6	=6	=6	=6	=6	=6	=6	=6	=6	=6	=6	=6	=6	=6	=6	=6	=6	=6	=6	=6	=6	=6
16r	.	4d-Xv	pp >	4B-Xv	pp >	2r	.	2r	4B-X 4d-X	ppp	2G#X	2r	< [	4r	.	4r	.	8r	.	2r	]
!LO:TX:b:i:t=dolcissimo	!	!	!	!	!	!	!	!	!	!	!	!	!	!	!	!	!	!	!	!	!
8ccnv	pp <	.	.	.	.	.	.	.	.	.	.	.	.	.	.	.	.	.	.	.	.
.	.	.	.	.	.	.	.	.	.	.	.	.	.	.	.	.	.	(4ccc#X	ppp >	.	.
16r	[ >	.	.	.	.	.	.	.	.	.	.	.	.	.	.	.	.	.	.	.	.
16r	.	4r	]	4r	]	.	.	.	4r	.	.	.	.	12r	.	12r	.	.	.	.	.
8ddnv	] <	.	.	.	.	.	.	.	.	.	.	.	.	.	.	.	.	.	.	.	.
.	.	.	.	.	.	.	.	.	.	.	.	.	.	(6Gn	ppp < [	(6f	ppp < [	.	.	.	.
.	.	.	.	.	.	.	.	.	.	.	.	.	.	.	.	.	.	8gg)	]	.	.
16r	[ >	.	.	.	.	.	.	.	.	.	.	.	.	.	.	.	.	.	.	.	.
=7	=7	=7	=7	=7	=7	=7	=7	=7	=7	=7	=7	=7	=7	=7	=7	=7	=7	=7	=7	=7	=7
!	!	!	!	!LO:TX:a:i:t=dolcissimo	!	!	!	!	!	!	!	!	!	!	!	!	!	!	!	!	!
8r	.	2r	.	4r	.	2r	.	2r	2r	.	2G#X	2r	> ]	6Fn	.	6a-X	.	2r	.	2r	.
(4cc#X	pp ] >	.	.	.	.	.	.	.	.	.	.	.	.	.	.	.	.	.	.	.	.
.	.	.	.	.	.	.	.	.	.	.	.	.	.	6F#X	>	12g~L	>	.	.	.	.
.	.	.	.	[4bbb-X	p < [ >	.	.	.	.	.	.	.	.	.	.	12a~J)	.	.	.	.	.
.	.	.	.	.	.	.	.	.	.	.	.	.	.	6r	]	6r	]	.	.	.	.
8Bn)	]	.	.	.	.	.	.	.	.	.	.	.	.	.	.	.	.	.	.	.	.
=8	=8	=8	=8	=8	=8	=8	=8	=8	=8	=8	=8	=8	=8	=8	=8	=8	=8	=8	=8	=8	=8
!	!	!	!	!	!	!	!	!	!	!	!	!LO:TX:b:i:t=verklingend	!	!	!	!	!	!	!	!	!
(4.an	ppp <	2r	.	12bbb-L]	]	2r	.	2r	2r	.	4G#X	2r	.	2r	.	2r	.	2r	.	8r	.
.	.	.	.	(12ddn	<	.	.	.	.	.	.	.	.	.	.	.	.	.	.	.	.
*	*	*	*	*	*	*	*	*	*	*	*	*	*	*	*	*	*	*	*	*tremolo	*
!	!	!	!	!	!	!	!	!	!	!	!	!	!	!	!	!	!	!	!	!LO:TX:a:t=Flatterz.	!
.	.	.	.	.	.	.	.	.	.	.	.	.	.	.	.	.	.	.	.	32g#X	ppp <
.	.	.	.	.	.	.	.	.	.	.	.	.	.	.	.	.	.	.	.	32g#X	.
.	.	.	.	12ccc#XJ	.	.	.	.	.	.	.	.	.	.	.	.	.	.	.	.	.
.	.	.	.	.	.	.	.	.	.	.	.	.	.	.	.	.	.	.	.	32g#X	.
.	.	.	.	.	.	.	.	.	.	.	.	.	.	.	.	.	.	.	.	32g#X	.
.	.	.	.	6fffn	[ >	.	.	.	.	.	4r	.	.	.	.	.	.	.	.	32enLLL	.
.	.	.	.	.	.	.	.	.	.	.	.	.	.	.	.	.	.	.	.	32en	.
.	.	.	.	.	.	.	.	.	.	.	.	.	.	.	.	.	.	.	.	32en	.
.	.	.	.	.	.	.	.	.	.	.	.	.	.	.	.	.	.	.	.	32en	.
8ccn)	] > ]	.	.	.	.	.	.	.	.	.	.	.	.	.	.	.	.	.	.	32fn	[
.	.	.	.	.	.	.	.	.	.	.	.	.	.	.	.	.	.	.	.	32fn	.
.	.	.	.	12ff#X)	]	.	.	.	.	.	.	.	.	.	.	.	.	.	.	.	.
.	.	.	.	.	.	.	.	.	.	.	.	.	.	.	.	.	.	.	.	32fn	.
.	.	.	.	.	.	.	.	.	.	.	.	.	.	.	.	.	.	.	.	32fnJJJ	.
*	*	*	*	*	*	*	*	*	*	*	*	*	*	*	*	*	*	*	*	*Xtremolo	*
=9	=9	=9	=9	=9	=9	=9	=9	=9	=9	=9	=9	=9	=9	=9	=9	=9	=9	=9	=9	=9	=9
2r	.	2r	.	8r	.	8r	.	2r	4r	ppp	2r	2r	.	2r	.	4r	.	2r	.	12en@32@L	>
.	.	.	.	.	.	.	.	.	.	.	.	.	.	.	.	.	.	.	.	12dd#X@32@J	.
.	.	.	.	[4.gggn	pp > ]	4ggn~	ppp	.	.	.	.	.	.	.	.	.	.	.	.	.	.
.	.	.	.	.	.	.	.	.	.	.	.	.	.	.	.	.	.	.	.	12r	]
!	!	!	!	!	!	!	!	!	!	!	!	!	!	!	!	!LO:TX:a:i:t=espr.	!	!	!	!LO:TX:a:i:t=zügernd tempo	!
.	.	.	.	.	.	.	.	.	16r	.	.	.	.	.	.	16r	.	.	.	4r	.
.	.	.	.	.	.	.	.	.	16an'^LL	<	.	.	.	.	.	8bX	ppp	.	.	.	.
.	.	.	.	.	.	8r	.	.	16a'JJ	.	.	.	.	.	.	.	.	.	.	.	.
.	.	.	.	.	.	.	.	.	16r	[	.	.	.	.	.	16r	< [	.	.	.	.
*clefF4	*	*	*	*	*	*	*	*	*	*	*	*	*	*	*	*	*	*	*	*	*
=10	=10	=10	=10	=10	=10	=10	=10	=10	=10	=10	=10	=10	=10	=10	=10	=10	=10	=10	=10	=10	=10
*^	*	*	*	*	*	*	*	*	*	*	*	*	*	*	*	*	*	*	*	*	*
!	!	!	!	!	!LO:TX:a:i:t=zügernd tempo	!	!	!	!	!	!	!	!	!	!	!	!	!	!	!	!	!
4.GG#X 4.C#X	2G	pp < [ <	2r	.	4ggg]	ppp >	2r	.	6r	2r	.	4.G#X^	2r	pp	2r	.	2r	.	2r	.	2r	.
.	.	.	.	.	.	.	.	.	12r	.	.	.	.	.	.	.	.	.	.	.	.	.
.	.	.	.	.	4r	]	.	.	12DnL	.	< pp	.	.	.	.	.	.	.	.	.	.	.
.	.	.	.	.	.	.	.	.	12en	.	.	.	.	.	.	.	.	.	.	.	.	.
8r	.	] > ] > ]	.	.	.	.	.	.	.	.	.	8r	.	.	.	.	.	.	.	.	.	.
.	.	.	.	.	.	.	.	.	12B-XJ	.	[	.	.	.	.	.	.	.	.	.	.	.
*v	*v	*	*	*	*	*	*	*	*	*	*	*	*	*	*	*	*	*	*	*	*	*
=11	=11	=11	=11	=11	=11	=11	=11	=11	=11	=11	=11	=11	=11	=11	=11	=11	=11	=11	=11	=11	=11
!	!	!	!	!	!	!	!	!	!	!	!	!	!	!	!	!	!	!	!	!LO:TX:a:t=rit.	!
2r	.	2r	.	2r	.	2r	.	8B-XL	2r	.	2r	2r	.	2r	.	2r	.	2r	.	2r	.
.	.	.	.	.	.	.	.	8AnJ	.	>	.	.	.	.	.	.	.	.	.	.	.
.	.	.	.	.	.	.	.	8BnL	.	.	.	.	.	.	.	.	.	.	.	.	.
.	.	.	.	.	.	.	.	8E-XJ	.	]	.	.	.	.	.	.	.	.	.	.	.
=12	=12	=12	=12	=12	=12	=12	=12	=12	=12	=12	=12	=12	=12	=12	=12	=12	=12	=12	=12	=12	=12
2r	.	2r	.	2r	.	2r	.	2r	2r	.	4r	2r	.	2r	.	8r	ppp	2r	.	16r	ppp
.	.	.	.	.	.	.	.	.	.	.	.	.	.	.	.	.	.	.	.	16fn'LL	>
.	.	.	.	.	.	.	.	.	.	.	.	.	.	.	.	16g'LL	>	.	.	16f'JJ	.
.	.	.	.	.	.	.	.	.	.	.	.	.	.	.	.	16g'JJ	]	.	.	16r	]
.	.	.	.	.	.	.	.	.	.	.	16r	.	.	.	.	4r	.	.	.	4r	.
.	.	.	.	.	.	.	.	.	.	.	16Fn'	.	ppp	.	.	.	.	.	.	.	.
.	.	.	.	.	.	.	.	.	.	.	8r	.	.	.	.	.	.	.	.	.	.
=	=	=	=	=	=	=	=	=	=	=	=	=	=	=	=	=	=	=	=	=	=
*-	*-	*-	*-	*-	*-	*-	*-	*-	*-	*-	*-	*-	*-	*-	*-	*-	*-	*-	*-	*-	*-
!!!system-decoration: [(s1,s2)][(s3,s4)][({(s5,s6)})][({(s7,s8)})][(s9)][(s10,s11,s12)]
!!!CDT: 1883/12/03-1945/09/15
!!!CBL: Vienna, Austria
!!!CDL: Mittersill, Austria
!!!CNT: Austrian
!!!AGN: Orchestral; Symphonic
!!!MCN: Webern, Anton
!!!MDT: 1924/06/22
!!!MGN: unknown
!!!MLC: Zürich, Switzerland
!!!MPD: 1924
!!!MPN:
!!!ODT: 1913
!!!PDT: 1923
!!!excerpt-start-measure: 1
!!!excerpt-end-measure: 12
!!!excerpt-start-time: 0:00
!!!excerpt-end-time: 0:58
!!!EEV: 2020/07/28
!!!ONB: Converted from MusicXML on 2020/07/28
